src/svg/11-flags/flag-ca.svg

<?xml version="1.0" encoding="UTF-8" standalone="no"?>
<svg width="640px" height="480px" viewBox="0 0 640 480" version="1.1" xmlns="http://www.w3.org/2000/svg" xmlns:xlink="http://www.w3.org/1999/xlink">
    <g stroke="none" stroke-width="1" fill="none" fill-rule="evenodd">
        <g id="Rectangle-path-+-Rectangle-path">
            <rect id="Rectangle-path" fill="#FF0000" x="0" y="0" width="640" height="480"></rect>
            <rect id="Rectangle-path" fill="#FFFFFF" x="160" y="0" width="320" height="480"></rect>
        </g>
        <path d="M319.994318,84.25 L294.887062,131.078213 C292.038109,136.167661 286.933647,135.695605 281.829178,132.852989 L263.652193,123.440594 L277.199782,195.367747 C280.048735,208.508431 270.90802,208.508431 266.397032,202.826629 L234.674659,167.3139 L229.524587,185.348108 C228.930694,187.716387 226.319447,190.203824 222.401962,189.611469 L182.288659,181.177557 L192.824676,219.482493 C195.080155,228.00577 196.839482,231.534699 190.547676,233.782671 L176.25,240.502535 L245.302455,296.591903 C248.035591,298.712694 249.416481,302.529215 248.443467,305.984808 L242.399906,325.817852 C266.175687,323.077201 287.479156,318.95396 311.266977,316.414576 C313.366955,316.190398 316.882569,319.655979 316.868151,322.089563 L313.717894,394.75 L325.277797,394.75 L323.458133,322.245389 C323.443634,319.811805 326.633031,316.190398 328.733008,316.414576 C352.52083,318.953967 373.824328,323.077201 397.600101,325.817852 L391.556555,305.984808 C390.583541,302.529215 391.964424,298.712694 394.69756,296.591903 L463.75,240.502535 L449.452339,233.782671 C443.160518,231.534699 444.919845,228.00577 447.175324,219.482493 L457.711363,181.177557 L417.598038,189.611469 C413.680553,190.203824 411.069306,187.716387 410.475398,185.348108 L405.325334,167.3139 L373.602976,202.826629 C369.091973,208.508431 359.95125,208.508431 362.800203,195.367747 L376.34777,123.440594 L358.170822,132.852989 C353.066228,135.695605 347.961891,136.167661 345.112931,131.078213 L319.994318,84.25 Z" id="Shape" fill="#FF0000"></path>
    </g>
</svg>

<svg xmlns="http://www.w3.org/2000/svg" width="640" height="480"><g fill="none" fill-rule="evenodd"><path fill="#F00" d="M0 0h640v480H0z"/><path fill="#FFF" d="M160 0h320v480H160z"/><path fill="#F00" d="M319.994 84.25l-25.107 46.828c-2.85 5.09-7.953 4.618-13.058 1.775l-18.18-9.412 13.55 71.93c2.85 13.14-6.294 13.14-10.805 7.46l-31.722-35.512-5.15 18.034c-.594 2.37-3.206 4.857-7.123 4.264l-40.112-8.432 10.534 38.305c2.255 8.523 4.014 12.052-2.277 14.3l-14.298 6.72 69.05 56.09c2.735 2.12 4.115 5.936 3.14 9.392l-6.04 19.833c23.775-2.74 45.08-6.863 68.866-9.402 2.1-.224 5.616 3.24 5.6 5.676l-3.15 72.66h11.56l-1.82-72.506c-.013-2.432 3.176-6.054 5.276-5.83 23.786 2.54 45.09 6.663 68.865 9.404l-6.044-19.832c-.972-3.456.408-7.272 3.14-9.393l69.054-56.09-14.3-6.72c-6.29-2.248-4.53-5.777-2.276-14.3l10.535-38.305-40.112 8.434c-3.916.593-6.53-1.895-7.122-4.263l-5.15-18.035-31.722 35.513c-4.51 5.68-13.652 5.68-10.803-7.46l13.548-71.925-18.176 9.414c-5.103 2.843-10.207 3.315-13.056-1.775l-25.12-46.83z"/></g></svg>
